flaticon/interaction/notepad-12.svg

<svg xmlns="http://www.w3.org/2000/svg" width="32" height="32" viewBox="0 0 24 24">
    <path d="M23.171875 14.714844L22 13.539062C21.535156 13.074219 20.726562 13.074219 20.261719 13.539062L13.921875 19.878906 13.046875 23.082031 12.832031 23.296875C12.675781 23.457031 12.671875 23.714844 12.832031 23.875L12.828125 23.882812 12.835938 23.882812C12.917969 23.960938 13.019531 24 13.125 24 13.230469 24 13.335938 23.960938 13.417969 23.878906L13.628906 23.664062 16.832031 22.792969 23.171875 16.453125C23.652344 15.972656 23.652344 15.191406 23.171875 14.714844zM14.871094 20.09375L19.089844 15.875 20.839844 17.621094 16.621094 21.839844zM14.5 20.886719L15.828125 22.210938 14.003906 22.710938zM22.589844 15.871094L21.421875 17.039062 19.671875 15.292969 20.84375 14.121094C20.996094 13.96875 21.261719 13.96875 21.417969 14.121094L22.589844 15.296875C22.75 15.453125 22.75 15.710938 22.589844 15.871094zM3.351562 14.828125L14.058594 14.828125C14.285156 14.828125 14.472656 14.644531 14.472656 14.414062 14.472656 14.1875 14.285156 14.003906 14.058594 14.003906L3.351562 14.003906C3.125 14.003906 2.9375 14.1875 2.9375 14.414062 2.9375 14.644531 3.125 14.828125 3.351562 14.828125zM12.410156 16.476562L3.351562 16.476562C3.125 16.476562 2.9375 16.660156 2.9375 16.886719 2.9375 17.113281 3.125 17.296875 3.351562 17.296875L12.410156 17.296875C12.640625 17.296875 12.824219 17.113281 12.824219 16.886719 12.824219 16.660156 12.640625 16.476562 12.410156 16.476562zM3.351562 7.414062L8.703125 7.414062C8.933594 7.414062 9.117188 7.230469 9.117188 7 9.117188 6.773438 8.933594 6.589844 8.703125 6.589844L3.351562 6.589844C3.125 6.589844 2.9375 6.773438 2.9375 7 2.9375 7.230469 3.125 7.414062 3.351562 7.414062zM8.703125 19.769531C8.933594 19.769531 9.117188 19.585938 9.117188 19.359375 9.117188 19.128906 8.933594 18.945312 8.703125 18.945312L3.351562 18.945312C3.125 18.945312 2.9375 19.128906 2.9375 19.359375 2.9375 19.585938 3.125 19.769531 3.351562 19.769531zM15.296875 9.0625L3.351562 9.0625C3.125 9.0625 2.9375 9.246094 2.9375 9.472656 2.9375 9.699219 3.125 9.886719 3.351562 9.886719L15.296875 9.886719C15.523438 9.886719 15.707031 9.699219 15.707031 9.472656 15.707031 9.246094 15.523438 9.0625 15.296875 9.0625zM3.351562 12.355469L9.117188 12.355469C9.34375 12.355469 9.527344 12.171875 9.527344 11.945312 9.527344 11.714844 9.34375 11.53125 9.117188 11.53125L3.351562 11.53125C3.125 11.53125 2.9375 11.714844 2.9375 11.945312 2.9375 12.171875 3.125 12.355469 3.351562 12.355469zM15.707031 11.945312C15.707031 11.714844 15.523438 11.53125 15.296875 11.53125L12.410156 11.53125C12.183594 11.53125 12 11.714844 12 11.945312 12 12.171875 12.183594 12.355469 12.410156 12.355469L15.296875 12.355469C15.523438 12.355469 15.707031 12.171875 15.707031 11.945312zM11.058594 12.238281C11.132812 12.160156 11.175781 12.050781 11.175781 11.945312 11.175781 11.835938 11.132812 11.730469 11.058594 11.652344 10.898438 11.5 10.625 11.5 10.472656 11.652344 10.398438 11.730469 10.351562 11.835938 10.351562 11.945312 10.351562 12.054688 10.398438 12.160156 10.472656 12.238281 10.550781 12.3125 10.65625 12.355469 10.765625 12.355469 10.871094 12.355469 10.980469 12.3125 11.058594 12.238281zM11.058594 12.238281"/>
    <path d="M 10.765625 23.066406 L 1.292969 23.066406 L 1.292969 3.296875 L 4.175781 3.296875 L 4.175781 4.117188 C 4.175781 4.347656 4.359375 4.53125 4.585938 4.53125 L 14.058594 4.53125 C 14.285156 4.53125 14.472656 4.347656 14.472656 4.117188 L 14.472656 3.296875 L 17.355469 3.296875 L 17.355469 12.355469 C 17.355469 12.585938 17.539062 12.769531 17.765625 12.769531 C 17.992188 12.769531 18.179688 12.585938 18.179688 12.355469 L 18.179688 2.882812 C 18.179688 2.65625 17.992188 2.472656 17.765625 2.472656 L 14.472656 2.472656 L 14.472656 1.648438 C 14.472656 1.417969 14.285156 1.234375 14.058594 1.234375 L 11.589844 1.234375 L 11.589844 0.410156 C 11.589844 0.183594 11.402344 0 11.175781 0 L 7.46875 0 C 7.242188 0 7.058594 0.183594 7.058594 0.410156 L 7.058594 1.234375 L 4.585938 1.234375 C 4.359375 1.234375 4.175781 1.417969 4.175781 1.648438 L 4.175781 2.472656 L 0.878906 2.472656 C 0.652344 2.472656 0.46875 2.65625 0.46875 2.882812 L 0.46875 23.476562 C 0.46875 23.703125 0.652344 23.890625 0.878906 23.890625 L 10.765625 23.890625 C 10.992188 23.890625 11.175781 23.703125 11.175781 23.476562 C 11.175781 23.25 10.992188 23.066406 10.765625 23.066406 Z M 7.882812 0.824219 L 10.765625 0.824219 L 10.765625 2.472656 L 7.882812 2.472656 Z M 5 2.058594 L 7.058594 2.058594 L 7.058594 2.882812 C 7.058594 3.109375 7.242188 3.296875 7.46875 3.296875 L 11.175781 3.296875 C 11.402344 3.296875 11.589844 3.109375 11.589844 2.882812 L 11.589844 2.058594 L 13.648438 2.058594 L 13.648438 3.707031 L 5 3.707031 Z M 5 2.058594"/>
</svg>

<svg xmlns="http://www.w3.org/2000/svg" width="32" height="32" viewBox="0 0 24 24">
    <path d="M23.172 14.715L22 13.539a1.258 1.258 0 0 0-1.738 0l-6.34 6.34-.875 3.203-.215.215a.411.411 0 0 0 0 .578l-.004.008h.008a.414.414 0 0 0 .582-.004l.21-.215 3.204-.871 6.34-6.34c.48-.48.48-1.262 0-1.738zm-8.3 5.379l4.218-4.219 1.75 1.746-4.219 4.219zm-.372.793l1.328 1.324-1.824.5zm8.09-5.016l-1.168 1.168-1.75-1.746 1.172-1.172a.418.418 0 0 1 .574 0l1.172 1.176c.16.156.16.414 0 .574zm0 0M3.352 14.828h10.707a.414.414 0 0 0 .414-.414.413.413 0 0 0-.414-.41H3.352a.413.413 0 0 0-.414.41c0 .23.187.414.414.414zm0 0M12.41 16.477H3.352a.413.413 0 0 0-.414.41c0 .226.187.41.414.41h9.058a.411.411 0 1 0 0-.82zm0 0M3.352 7.414h5.351a.412.412 0 1 0 0-.824H3.352a.413.413 0 0 0-.414.41c0 .23.187.414.414.414zm0 0M8.703 19.77a.412.412 0 1 0 0-.824H3.352a.414.414 0 0 0-.414.413c0 .227.187.41.414.41zm0 0M15.297 9.063H3.352a.413.413 0 0 0-.414.41c0 .226.187.414.414.414h11.945c.226 0 .41-.188.41-.414a.41.41 0 0 0-.41-.41zm0 0M3.352 12.355h5.765a.41.41 0 0 0 .41-.41.411.411 0 0 0-.41-.414H3.352a.414.414 0 0 0-.414.414c0 .227.187.41.414.41zm0 0M15.707 11.945a.411.411 0 0 0-.41-.414H12.41a.411.411 0 0 0-.41.414c0 .227.184.41.41.41h2.887a.41.41 0 0 0 .41-.41zm0 0M11.059 12.238a.427.427 0 0 0 0-.586.433.433 0 0 0-.586 0 .431.431 0 0 0-.121.293c0 .11.046.215.12.293a.427.427 0 0 0 .587 0zm0 0"/>
    <path d="M10.766 23.066H1.293V3.296h2.883v.821c0 .23.183.414.41.414h9.473a.414.414 0 0 0 .414-.414v-.82h2.882v9.058c0 .23.184.415.41.415a.414.414 0 0 0 .415-.415V2.883a.413.413 0 0 0-.414-.41h-3.293v-.825a.414.414 0 0 0-.414-.414h-2.47V.41a.413.413 0 0 0-.413-.41H7.469a.41.41 0 0 0-.41.41v.824H4.586a.411.411 0 0 0-.41.414v.825H.879a.41.41 0 0 0-.41.41v20.594c0 .226.183.414.41.414h9.887c.226 0 .41-.188.41-.414a.41.41 0 0 0-.41-.41zM7.883.824h2.883v1.649H7.883zM5 2.06h2.059v.824c0 .226.183.414.41.414h3.707a.417.417 0 0 0 .414-.414v-.824h2.058v1.648H5zm0 0"/>
</svg>
